X: 1
T: Guilderoy's Reel  v.1
P: piffero primo a0697
O: cfd-bk2
%R: reel
F: http://ancients.sudburymuster.org/mus/ssp/pdf/ShadydealF.pdf
Z: 2019 John Chambers <jc:trillian.mit.edu>
M: 2/4
L: 1/16
K: Amix
AG |\
E2AB ABcd | efec d2cd | e2A2 ABcA | BGEF G2AG |\
E2AB ABcd |
efec d2cd | efaf gedB | A2B2 A2 :: ef |\
g3a gfef | gage d2cd |
e2A2 ABcA | BGEF G2AG |\
E2AB ABcd | efec d2cd | efaf gedB | A2B2 A2 :|
